docs/svgs/room-closet.svg

<svg viewBox="0 0 24 24" height="24px" width="24px" fill="#44739e" xmlns="http://www.w3.org/2000/svg"><title>hue:room-closet</title><desc>Source: https://github.com/arallsopp/hass-hue-icons</desc><path d="M 18 6.75 L 15 6.75 C 14.585938 6.75 14.25 6.414062 14.25 6 C 14.25 5.585938 14.585938 5.25 15 5.25 L 18 5.25 C 18.414062 5.25 18.75 5.585938 18.75 6 C 18.75 6.414062 18.414062 6.75 18 6.75 Z M 18 11.25 L 15 11.25 C 14.585938 11.25 14.25 10.914062 14.25 10.5 C 14.25 10.085938 14.585938 9.75 15 9.75 L 18 9.75 C 18.414062 9.75 18.75 10.085938 18.75 10.5 C 18.75 10.914062 18.414062 11.25 18 11.25 Z M 18 15.75 L 15 15.75 C 14.585938 15.75 14.25 15.414062 14.25 15 C 14.25 14.585938 14.585938 14.25 15 14.25 L 18 14.25 C 18.414062 14.25 18.75 14.585938 18.75 15 C 18.75 15.414062 18.414062 15.75 18 15.75 Z M 12.75 17.25 C 12.75 17.664062 12.414062 18 12 18 C 11.585938 18 11.25 17.664062 11.25 17.25 L 11.25 3.75 C 11.25 3.335938 11.585938 3 12 3 C 12.414062 3 12.75 3.335938 12.75 3.75 Z M 9 11.25 L 7.5 11.25 C 7.085938 11.25 6.75 10.914062 6.75 10.5 C 6.75 10.085938 7.085938 9.75 7.5 9.75 L 9 9.75 C 9.414062 9.75 9.75 10.085938 9.75 10.5 C 9.75 10.914062 9.414062 11.25 9 11.25 Z M 19.5 0.75 L 4.5 0.75 C 4.085938 0.75 3.75 1.085938 3.75 1.5 L 3.75 19.5 C 3.75 19.914062 4.085938 20.25 4.5 20.25 L 5.25 20.25 L 5.25 21 C 5.25 21.414062 5.585938 21.75 6 21.75 C 6.414062 21.75 6.75 21.414062 6.75 21 L 6.75 20.25 L 17.25 20.25 L 17.25 21 C 17.25 21.414062 17.585938 21.75 18 21.75 C 18.414062 21.75 18.75 21.414062 18.75 21 L 18.75 20.25 L 19.5 20.25 C 19.914062 20.25 20.25 19.914062 20.25 19.5 L 20.25 1.5 C 20.25 1.085938 19.914062 0.75 19.5 0.75 Z M 19.5 0.75 "/></svg>

<svg viewBox="0 0 24 24" height="24px" width="24px" fill="#44739e" xmlns="http://www.w3.org/2000/svg"><title>hue:room-closet</title><desc>Source: https://github.com/arallsopp/hass-hue-icons</desc><path d="M18,6.75h-3c-0.41,0-0.75-0.34-0.75-0.75S14.59,5.25,15,5.25h3c0.41,0,0.75,0.34,0.75,0.75S18.41,6.75,18,6.75z M18,11.25h-3c-0.41,0-0.75-0.34-0.75-0.75S14.59,9.75,15,9.75h3c0.41,0,0.75,0.34,0.75,0.75S18.41,11.25,18,11.25z M18,15.75h-3 c-0.41,0-0.75-0.34-0.75-0.75s0.34-0.75,0.75-0.75h3c0.41,0,0.75,0.34,0.75,0.75S18.41,15.75,18,15.75z M12.75,17.25 c0,0.41-0.34,0.75-0.75,0.75s-0.75-0.34-0.75-0.75V3.75C11.25,3.34,11.59,3,12,3s0.75,0.34,0.75,0.75V17.25z M9,11.25H7.5 c-0.41,0-0.75-0.34-0.75-0.75S7.09,9.75,7.5,9.75H9c0.41,0,0.75,0.34,0.75,0.75S9.41,11.25,9,11.25z M19.5,0.75h-15 c-0.41,0-0.75,0.34-0.75,0.75v18c0,0.41,0.34,0.75,0.75,0.75h0.75V21c0,0.41,0.34,0.75,0.75,0.75S6.75,21.41,6.75,21v-0.75h10.5V21 c0,0.41,0.34,0.75,0.75,0.75s0.75-0.34,0.75-0.75v-0.75h0.75c0.41,0,0.75-0.34,0.75-0.75v-18C20.25,1.09,19.91,0.75,19.5,0.75z"/></svg>
